images/254567.svg

<?xml version="1.0" encoding="UTF-8"?>
<svg xmlns="http://www.w3.org/2000/svg" xmlns:xlink="http://www.w3.org/1999/xlink" width="300pt" height="300pt" viewBox="0 0 300 300" version="1.1">
<defs>
<g>
<symbol overflow="visible" id="glyph0-0">
<path style="stroke:none;" d="M 0.546875 1.9375 L 0.546875 -7.75 L 6.046875 -7.75 L 6.046875 1.9375 Z M 1.171875 1.328125 L 5.4375 1.328125 L 5.4375 -7.140625 L 1.171875 -7.140625 Z M 1.171875 1.328125 "/>
</symbol>
<symbol overflow="visible" id="glyph0-1">
<path style="stroke:none;" d="M 1.078125 -8.015625 L 5.6875 -8.015625 L 5.6875 -7.109375 L 2.171875 -7.109375 L 2.171875 -4.75 L 5.34375 -4.75 L 5.34375 -3.828125 L 2.171875 -3.828125 L 2.171875 0 L 1.078125 0 Z M 1.078125 -8.015625 "/>
</symbol>
<symbol overflow="visible" id="glyph0-2">
<path style="stroke:none;" d="M 1.078125 -8.015625 L 2.546875 -8.015625 L 6.09375 -1.3125 L 6.09375 -8.015625 L 7.15625 -8.015625 L 7.15625 0 L 5.6875 0 L 2.125 -6.703125 L 2.125 0 L 1.078125 0 Z M 1.078125 -8.015625 "/>
</symbol>
<symbol overflow="visible" id="glyph0-3">
<path style="stroke:none;" d="M 1.078125 -8.015625 L 2.171875 -8.015625 L 2.171875 -4.734375 L 6.109375 -4.734375 L 6.109375 -8.015625 L 7.1875 -8.015625 L 7.1875 0 L 6.109375 0 L 6.109375 -3.8125 L 2.171875 -3.8125 L 2.171875 0 L 1.078125 0 Z M 1.078125 -8.015625 "/>
</symbol>
</g>
</defs>
<g id="surface20249">
<rect x="0" y="0" width="300" height="300" style="fill:rgb(100%,100%,100%);fill-opacity:1;stroke:none;"/>
<path style="fill:none;stroke-width:1.2;stroke-linecap:butt;stroke-linejoin:miter;stroke:rgb(20%,80%,80%);stroke-opacity:1;stroke-miterlimit:10;" d="M 49.507812 187.765625 L 54.675781 174.699219 "/>
<path style="fill:none;stroke-width:1.2;stroke-linecap:butt;stroke-linejoin:miter;stroke:rgb(0%,0%,0%);stroke-opacity:1;stroke-miterlimit:10;" d="M 54.675781 174.699219 L 59.84375 161.632812 "/>
<path style=" stroke:none;fill-rule:nonzero;fill:rgb(100%,100%,100%);fill-opacity:1;" d="M 42.507812 181.265625 L 49.507812 181.265625 L 49.507812 194.265625 L 42.507812 194.265625 Z M 42.507812 181.265625 "/>
<g style="fill:rgb(20%,80%,80%);fill-opacity:1;">
  <use xlink:href="#glyph0-1" x="42.507812" y="191.166992"/>
</g>
<path style="fill:none;stroke-width:1.2;stroke-linecap:butt;stroke-linejoin:miter;stroke:rgb(0%,0%,0%);stroke-opacity:1;stroke-miterlimit:10;" d="M 59.84375 161.632812 L 42.378906 139.617188 "/>
<path style="fill:none;stroke-width:1.2;stroke-linecap:butt;stroke-linejoin:miter;stroke:rgb(0%,0%,0%);stroke-opacity:1;stroke-miterlimit:10;" d="M 63.277344 155.324219 L 49.304688 137.710938 "/>
<path style="fill:none;stroke-width:1.2;stroke-linecap:butt;stroke-linejoin:miter;stroke:rgb(0%,0%,0%);stroke-opacity:1;stroke-miterlimit:10;" d="M 87.640625 157.515625 L 59.84375 161.632812 "/>
<path style="fill:none;stroke-width:1.2;stroke-linecap:butt;stroke-linejoin:miter;stroke:rgb(0%,0%,0%);stroke-opacity:1;stroke-miterlimit:10;" d="M 42.378906 139.617188 L 52.714844 113.488281 "/>
<path style="fill:none;stroke-width:1.2;stroke-linecap:butt;stroke-linejoin:miter;stroke:rgb(0%,0%,0%);stroke-opacity:1;stroke-miterlimit:10;" d="M 52.714844 113.488281 L 43.980469 102.480469 "/>
<path style="fill:none;stroke-width:1.2;stroke-linecap:butt;stroke-linejoin:miter;stroke:rgb(20%,80%,80%);stroke-opacity:1;stroke-miterlimit:10;" d="M 43.980469 102.480469 L 35.25 91.472656 "/>
<path style="fill:none;stroke-width:1.2;stroke-linecap:butt;stroke-linejoin:miter;stroke:rgb(0%,0%,0%);stroke-opacity:1;stroke-miterlimit:10;" d="M 52.714844 113.488281 L 80.507812 109.371094 "/>
<path style="fill:none;stroke-width:1.2;stroke-linecap:butt;stroke-linejoin:miter;stroke:rgb(0%,0%,0%);stroke-opacity:1;stroke-miterlimit:10;" d="M 56.460938 119.617188 L 78.699219 116.324219 "/>
<path style=" stroke:none;fill-rule:nonzero;fill:rgb(100%,100%,100%);fill-opacity:1;" d="M 28.25 84.972656 L 35.25 84.972656 L 35.25 97.972656 L 28.25 97.972656 Z M 28.25 84.972656 "/>
<g style="fill:rgb(20%,80%,80%);fill-opacity:1;">
  <use xlink:href="#glyph0-1" x="28.25" y="94.874023"/>
</g>
<path style="fill:none;stroke-width:1.2;stroke-linecap:butt;stroke-linejoin:miter;stroke:rgb(0%,0%,0%);stroke-opacity:1;stroke-miterlimit:10;" d="M 80.507812 109.371094 L 97.972656 131.386719 "/>
<path style="fill:none;stroke-width:1.2;stroke-linecap:butt;stroke-linejoin:miter;stroke:rgb(0%,0%,0%);stroke-opacity:1;stroke-miterlimit:10;" d="M 97.972656 131.386719 L 87.640625 157.515625 "/>
<path style="fill:none;stroke-width:1.2;stroke-linecap:butt;stroke-linejoin:miter;stroke:rgb(0%,0%,0%);stroke-opacity:1;stroke-miterlimit:10;" d="M 90.789062 131.566406 L 82.523438 152.472656 "/>
<path style="fill:none;stroke-width:1.2;stroke-linecap:butt;stroke-linejoin:miter;stroke:rgb(0%,0%,0%);stroke-opacity:1;stroke-miterlimit:10;" d="M 87.640625 157.515625 L 96.371094 168.523438 "/>
<path style="fill:none;stroke-width:1.2;stroke-linecap:butt;stroke-linejoin:miter;stroke:rgb(0%,0%,100%);stroke-opacity:1;stroke-miterlimit:10;" d="M 96.371094 168.523438 L 105.101562 179.53125 "/>
<path style="fill:none;stroke-width:1.2;stroke-linecap:butt;stroke-linejoin:miter;stroke:rgb(0%,0%,100%);stroke-opacity:1;stroke-miterlimit:10;" d="M 105.101562 179.53125 L 119 177.472656 "/>
<path style="fill:none;stroke-width:1.2;stroke-linecap:butt;stroke-linejoin:miter;stroke:rgb(0%,0%,0%);stroke-opacity:1;stroke-miterlimit:10;" d="M 119 177.472656 L 132.898438 175.414062 "/>
<path style=" stroke:none;fill-rule:nonzero;fill:rgb(100%,100%,100%);fill-opacity:1;" d="M 97.101562 173.03125 L 114.101562 173.03125 L 114.101562 186.03125 L 97.101562 186.03125 Z M 97.101562 173.03125 "/>
<g style="fill:rgb(0%,0%,100%);fill-opacity:1;">
  <use xlink:href="#glyph0-2" x="97.101562" y="182.932617"/>
  <use xlink:href="#glyph0-3" x="105.084961" y="182.932617"/>
</g>
<path style="fill:none;stroke-width:1.2;stroke-linecap:butt;stroke-linejoin:miter;stroke:rgb(0%,0%,0%);stroke-opacity:1;stroke-miterlimit:10;" d="M 132.898438 175.414062 L 141.628906 186.421875 "/>
<path style="fill:none;stroke-width:1.2;stroke-linecap:butt;stroke-linejoin:miter;stroke:rgb(0%,0%,100%);stroke-opacity:1;stroke-miterlimit:10;" d="M 141.628906 186.421875 L 150.363281 197.429688 "/>
<path style="fill:none;stroke-width:1.2;stroke-linecap:butt;stroke-linejoin:miter;stroke:rgb(0%,0%,0%);stroke-opacity:1;stroke-miterlimit:10;" d="M 139.824219 173.507812 L 146.808594 182.3125 "/>
<path style="fill:none;stroke-width:1.2;stroke-linecap:butt;stroke-linejoin:miter;stroke:rgb(0%,0%,100%);stroke-opacity:1;stroke-miterlimit:10;" d="M 146.808594 182.3125 L 153.796875 191.117188 "/>
<path style="fill:none;stroke-width:1.2;stroke-linecap:butt;stroke-linejoin:miter;stroke:rgb(0%,0%,0%);stroke-opacity:1;stroke-miterlimit:10;" d="M 143.230469 149.285156 L 132.898438 175.414062 "/>
<path style="fill:none;stroke-width:1.2;stroke-linecap:butt;stroke-linejoin:miter;stroke:rgb(0%,0%,100%);stroke-opacity:1;stroke-miterlimit:10;" d="M 150.363281 197.429688 L 164.257812 195.371094 "/>
<path style="fill:none;stroke-width:1.2;stroke-linecap:butt;stroke-linejoin:miter;stroke:rgb(0%,0%,0%);stroke-opacity:1;stroke-miterlimit:10;" d="M 164.257812 195.371094 L 178.15625 193.3125 "/>
<path style=" stroke:none;fill-rule:nonzero;fill:rgb(100%,100%,100%);fill-opacity:1;" d="M 146.363281 190.929688 L 154.363281 190.929688 L 154.363281 203.929688 L 146.363281 203.929688 Z M 146.363281 190.929688 "/>
<g style="fill:rgb(0%,0%,100%);fill-opacity:1;">
  <use xlink:href="#glyph0-2" x="146.363281" y="200.831055"/>
</g>
<path style="fill:none;stroke-width:1.2;stroke-linecap:butt;stroke-linejoin:miter;stroke:rgb(0%,0%,0%);stroke-opacity:1;stroke-miterlimit:10;" d="M 178.15625 193.3125 L 188.492188 167.183594 "/>
<path style="fill:none;stroke-width:1.2;stroke-linecap:butt;stroke-linejoin:miter;stroke:rgb(0%,0%,0%);stroke-opacity:1;stroke-miterlimit:10;" d="M 185.339844 193.128906 L 193.605469 172.226562 "/>
<path style="fill:none;stroke-width:1.2;stroke-linecap:butt;stroke-linejoin:miter;stroke:rgb(0%,0%,0%);stroke-opacity:1;stroke-miterlimit:10;" d="M 195.621094 215.328125 L 178.15625 193.3125 "/>
<path style="fill:none;stroke-width:1.2;stroke-linecap:butt;stroke-linejoin:miter;stroke:rgb(0%,0%,0%);stroke-opacity:1;stroke-miterlimit:10;" d="M 188.492188 167.183594 L 171.027344 145.167969 "/>
<path style="fill:none;stroke-width:1.2;stroke-linecap:butt;stroke-linejoin:miter;stroke:rgb(0%,0%,0%);stroke-opacity:1;stroke-miterlimit:10;" d="M 188.492188 167.183594 L 216.289062 163.066406 "/>
<path style="fill:none;stroke-width:1.2;stroke-linecap:butt;stroke-linejoin:miter;stroke:rgb(0%,0%,0%);stroke-opacity:1;stroke-miterlimit:10;" d="M 171.027344 145.167969 L 143.230469 149.285156 "/>
<path style="fill:none;stroke-width:1.2;stroke-linecap:butt;stroke-linejoin:miter;stroke:rgb(0%,0%,0%);stroke-opacity:1;stroke-miterlimit:10;" d="M 169.21875 152.121094 L 146.980469 155.414062 "/>
<path style="fill:none;stroke-width:1.2;stroke-linecap:butt;stroke-linejoin:miter;stroke:rgb(0%,0%,0%);stroke-opacity:1;stroke-miterlimit:10;" d="M 216.289062 163.066406 L 225.019531 174.074219 "/>
<path style="fill:none;stroke-width:1.2;stroke-linecap:butt;stroke-linejoin:miter;stroke:rgb(0%,0%,100%);stroke-opacity:1;stroke-miterlimit:10;" d="M 225.019531 174.074219 L 233.75 185.078125 "/>
<path style="fill:none;stroke-width:1.2;stroke-linecap:butt;stroke-linejoin:miter;stroke:rgb(0%,0%,0%);stroke-opacity:1;stroke-miterlimit:10;" d="M 212.855469 169.375 L 219.839844 178.179688 "/>
<path style="fill:none;stroke-width:1.2;stroke-linecap:butt;stroke-linejoin:miter;stroke:rgb(0%,0%,100%);stroke-opacity:1;stroke-miterlimit:10;" d="M 219.839844 178.179688 L 226.824219 186.988281 "/>
<path style="fill:none;stroke-width:1.2;stroke-linecap:butt;stroke-linejoin:miter;stroke:rgb(0%,0%,0%);stroke-opacity:1;stroke-miterlimit:10;" d="M 216.289062 163.066406 L 226.621094 136.933594 "/>
<path style="fill:none;stroke-width:1.2;stroke-linecap:butt;stroke-linejoin:miter;stroke:rgb(0%,0%,100%);stroke-opacity:1;stroke-miterlimit:10;" d="M 233.75 185.078125 L 223.417969 211.210938 "/>
<path style=" stroke:none;fill-rule:nonzero;fill:rgb(100%,100%,100%);fill-opacity:1;" d="M 229.75 178.578125 L 237.75 178.578125 L 237.75 191.578125 L 229.75 191.578125 Z M 229.75 178.578125 "/>
<g style="fill:rgb(0%,0%,100%);fill-opacity:1;">
  <use xlink:href="#glyph0-2" x="229.75" y="188.479492"/>
</g>
<path style="fill:none;stroke-width:1.2;stroke-linecap:butt;stroke-linejoin:miter;stroke:rgb(0%,0%,100%);stroke-opacity:1;stroke-miterlimit:10;" d="M 223.417969 211.210938 L 209.519531 213.269531 "/>
<path style="fill:none;stroke-width:1.2;stroke-linecap:butt;stroke-linejoin:miter;stroke:rgb(0%,0%,0%);stroke-opacity:1;stroke-miterlimit:10;" d="M 209.519531 213.269531 L 195.621094 215.328125 "/>
<path style="fill:none;stroke-width:1.2;stroke-linecap:butt;stroke-linejoin:miter;stroke:rgb(0%,0%,100%);stroke-opacity:1;stroke-miterlimit:10;" d="M 219.667969 205.082031 L 208.550781 206.726562 "/>
<path style="fill:none;stroke-width:1.2;stroke-linecap:butt;stroke-linejoin:miter;stroke:rgb(0%,0%,0%);stroke-opacity:1;stroke-miterlimit:10;" d="M 208.550781 206.726562 L 197.433594 208.375 "/>
<path style=" stroke:none;fill-rule:nonzero;fill:rgb(100%,100%,100%);fill-opacity:1;" d="M 219.417969 204.710938 L 227.417969 204.710938 L 227.417969 217.710938 L 219.417969 217.710938 Z M 219.417969 204.710938 "/>
<g style="fill:rgb(0%,0%,100%);fill-opacity:1;">
  <use xlink:href="#glyph0-2" x="219.417969" y="214.612305"/>
</g>
<path style="fill:none;stroke-width:1.2;stroke-linecap:butt;stroke-linejoin:miter;stroke:rgb(0%,0%,0%);stroke-opacity:1;stroke-miterlimit:10;" d="M 226.621094 136.933594 L 254.417969 132.816406 "/>
<path style="fill:none;stroke-width:1.2;stroke-linecap:butt;stroke-linejoin:miter;stroke:rgb(0%,0%,0%);stroke-opacity:1;stroke-miterlimit:10;" d="M 228.429688 129.984375 L 250.667969 126.691406 "/>
<path style="fill:none;stroke-width:1.2;stroke-linecap:butt;stroke-linejoin:miter;stroke:rgb(0%,0%,0%);stroke-opacity:1;stroke-miterlimit:10;" d="M 209.15625 114.921875 L 226.621094 136.933594 "/>
<path style="fill:none;stroke-width:1.2;stroke-linecap:butt;stroke-linejoin:miter;stroke:rgb(0%,0%,0%);stroke-opacity:1;stroke-miterlimit:10;" d="M 254.417969 132.816406 L 264.75 106.6875 "/>
<path style="fill:none;stroke-width:1.2;stroke-linecap:butt;stroke-linejoin:miter;stroke:rgb(0%,0%,0%);stroke-opacity:1;stroke-miterlimit:10;" d="M 264.75 106.6875 L 247.285156 84.671875 "/>
<path style="fill:none;stroke-width:1.2;stroke-linecap:butt;stroke-linejoin:miter;stroke:rgb(0%,0%,0%);stroke-opacity:1;stroke-miterlimit:10;" d="M 257.824219 108.59375 L 243.851562 90.984375 "/>
<path style="fill:none;stroke-width:1.2;stroke-linecap:butt;stroke-linejoin:miter;stroke:rgb(0%,0%,0%);stroke-opacity:1;stroke-miterlimit:10;" d="M 247.285156 84.671875 L 233.390625 86.730469 "/>
<path style="fill:none;stroke-width:1.2;stroke-linecap:butt;stroke-linejoin:miter;stroke:rgb(0%,0%,100%);stroke-opacity:1;stroke-miterlimit:10;" d="M 233.390625 86.730469 L 219.492188 88.789062 "/>
<path style="fill:none;stroke-width:1.2;stroke-linecap:butt;stroke-linejoin:miter;stroke:rgb(0%,0%,100%);stroke-opacity:1;stroke-miterlimit:10;" d="M 219.492188 88.789062 L 214.324219 101.855469 "/>
<path style="fill:none;stroke-width:1.2;stroke-linecap:butt;stroke-linejoin:miter;stroke:rgb(0%,0%,0%);stroke-opacity:1;stroke-miterlimit:10;" d="M 214.324219 101.855469 L 209.15625 114.921875 "/>
<path style="fill:none;stroke-width:1.2;stroke-linecap:butt;stroke-linejoin:miter;stroke:rgb(0%,0%,100%);stroke-opacity:1;stroke-miterlimit:10;" d="M 224.605469 93.835938 L 220.472656 104.285156 "/>
<path style="fill:none;stroke-width:1.2;stroke-linecap:butt;stroke-linejoin:miter;stroke:rgb(0%,0%,0%);stroke-opacity:1;stroke-miterlimit:10;" d="M 220.472656 104.285156 L 216.339844 114.738281 "/>
<path style=" stroke:none;fill-rule:nonzero;fill:rgb(100%,100%,100%);fill-opacity:1;" d="M 215.492188 82.289062 L 223.492188 82.289062 L 223.492188 95.289062 L 215.492188 95.289062 Z M 215.492188 82.289062 "/>
<g style="fill:rgb(0%,0%,100%);fill-opacity:1;">
  <use xlink:href="#glyph0-2" x="215.492188" y="92.19043"/>
</g>
<path style="fill:none;stroke-width:1.2;stroke-linecap:butt;stroke-linejoin:miter;stroke:rgb(0%,0%,0%);stroke-opacity:1;stroke-miterlimit:10;" d="M 209.15625 114.921875 L 181.359375 119.035156 "/>
</g>
</svg>

<svg xmlns="http://www.w3.org/2000/svg" xmlns:xlink="http://www.w3.org/1999/xlink" width="300pt" height="300pt" viewBox="0 0 300 300"><defs><symbol overflow="visible"><path d="M.547 1.938V-7.75h5.5v9.688zm.625-.61h4.266v-8.47H1.171zm0 0"/></symbol><symbol overflow="visible" id="a"><path d="M1.078-8.016h4.61v.907H2.171v2.36h3.172v.922H2.172V0H1.078zm0 0"/></symbol><symbol overflow="visible" id="b"><path d="M1.078-8.016h1.47l3.546 6.704v-6.704h1.062V0H5.688L2.124-6.703V0H1.078zm0 0"/></symbol><symbol overflow="visible" id="c"><path d="M1.078-8.016h1.094v3.282H6.11v-3.282h1.077V0H6.11v-3.813H2.17V0H1.078zm0 0"/></symbol></defs><g><path fill="#fff" d="M0 0h300v300H0z"/><path d="M49.508 187.766l5.168-13.067" stroke-width="1.2" stroke="#3cc" stroke-miterlimit="10" fill="none"/><path d="M54.676 174.7l5.168-13.067" stroke-width="1.2" stroke="#000" stroke-miterlimit="10" fill="none"/><path d="M42.508 181.266h7v13h-7zm0 0" fill="#fff"/><use xlink:href="#a" x="42.508" y="191.167" fill="#3cc"/><path d="M59.844 161.633L42.38 139.617M63.277 155.324L49.305 137.71M87.64 157.516l-27.796 4.117M42.38 139.617l10.335-26.13M52.715 113.488L43.98 102.48" stroke-width="1.2" stroke="#000" stroke-miterlimit="10" fill="none"/><path d="M43.98 102.48l-8.73-11.007" stroke-width="1.2" stroke="#3cc" stroke-miterlimit="10" fill="none"/><path d="M52.715 113.488l27.793-4.117M56.46 119.617l22.24-3.293" stroke-width="1.2" stroke="#000" stroke-miterlimit="10" fill="none"/><path d="M28.25 84.973h7v13h-7zm0 0" fill="#fff"/><use xlink:href="#a" x="28.25" y="94.874" fill="#3cc"/><path d="M80.508 109.37l17.465 22.017M97.973 131.387l-10.332 26.13M90.79 131.566l-8.267 20.907M87.64 157.516l8.73 11.007" stroke-width="1.2" stroke="#000" stroke-miterlimit="10" fill="none"/><path d="M96.37 168.523l8.732 11.008M105.102 179.53L119 177.474" stroke-width="1.2" stroke="#00f" stroke-miterlimit="10" fill="none"/><path d="M119 177.473l13.898-2.06" stroke-width="1.2" stroke="#000" stroke-miterlimit="10" fill="none"/><path d="M97.102 173.03h17v13h-17zm0 0" fill="#fff"/><g fill="#00f"><use xlink:href="#b" x="97.102" y="182.933"/><use xlink:href="#c" x="105.085" y="182.933"/></g><path d="M132.898 175.414l8.73 11.008" stroke-width="1.2" stroke="#000" stroke-miterlimit="10" fill="none"/><path d="M141.63 186.422l8.733 11.008" stroke-width="1.2" stroke="#00f" stroke-miterlimit="10" fill="none"/><path d="M139.824 173.508l6.985 8.804" stroke-width="1.2" stroke="#000" stroke-miterlimit="10" fill="none"/><path d="M146.81 182.313l6.987 8.804" stroke-width="1.2" stroke="#00f" stroke-miterlimit="10" fill="none"/><path d="M143.23 149.285l-10.332 26.13" stroke-width="1.2" stroke="#000" stroke-miterlimit="10" fill="none"/><path d="M150.363 197.43l13.895-2.06" stroke-width="1.2" stroke="#00f" stroke-miterlimit="10" fill="none"/><path d="M164.258 195.37l13.898-2.058" stroke-width="1.2" stroke="#000" stroke-miterlimit="10" fill="none"/><path d="M146.363 190.93h8v13h-8zm0 0" fill="#fff"/><use xlink:href="#b" x="146.363" y="200.831" fill="#00f"/><path d="M178.156 193.313l10.336-26.13M185.34 193.13l8.265-20.903M195.62 215.328l-17.464-22.016M188.492 167.184l-17.465-22.016M188.492 167.184l27.797-4.118M171.027 145.168l-27.797 4.117M169.22 152.12l-22.24 3.294M216.29 163.066l8.73 11.008" stroke-width="1.2" stroke="#000" stroke-miterlimit="10" fill="none"/><path d="M225.02 174.074l8.73 11.004" stroke-width="1.2" stroke="#00f" stroke-miterlimit="10" fill="none"/><path d="M212.855 169.375l6.985 8.805" stroke-width="1.2" stroke="#000" stroke-miterlimit="10" fill="none"/><path d="M219.84 178.18l6.984 8.808" stroke-width="1.2" stroke="#00f" stroke-miterlimit="10" fill="none"/><path d="M216.29 163.066l10.33-26.132" stroke-width="1.2" stroke="#000" stroke-miterlimit="10" fill="none"/><path d="M233.75 185.078l-10.332 26.133" stroke-width="1.2" stroke="#00f" stroke-miterlimit="10" fill="none"/><path d="M229.75 178.578h8v13h-8zm0 0" fill="#fff"/><use xlink:href="#b" x="229.75" y="188.479" fill="#00f"/><path d="M223.418 211.21l-13.898 2.06" stroke-width="1.2" stroke="#00f" stroke-miterlimit="10" fill="none"/><path d="M209.52 213.27l-13.9 2.058" stroke-width="1.2" stroke="#000" stroke-miterlimit="10" fill="none"/><path d="M219.668 205.082l-11.117 1.645" stroke-width="1.2" stroke="#00f" stroke-miterlimit="10" fill="none"/><path d="M208.55 206.727l-11.116 1.648" stroke-width="1.2" stroke="#000" stroke-miterlimit="10" fill="none"/><path d="M219.418 204.71h8v13h-8zm0 0" fill="#fff"/><use xlink:href="#b" x="219.418" y="214.612" fill="#00f"/><path d="M226.62 136.934l27.798-4.118M228.43 129.984l22.238-3.293M209.156 114.922l17.465 22.012M254.418 132.816l10.332-26.13M264.75 106.688l-17.465-22.016M257.824 108.594l-13.972-17.61M247.285 84.672L233.39 86.73" stroke-width="1.2" stroke="#000" stroke-miterlimit="10" fill="none"/><path d="M233.39 86.73l-13.898 2.06M219.492 88.79l-5.168 13.065" stroke-width="1.2" stroke="#00f" stroke-miterlimit="10" fill="none"/><path d="M214.324 101.855l-5.168 13.067" stroke-width="1.2" stroke="#000" stroke-miterlimit="10" fill="none"/><path d="M224.605 93.836l-4.132 10.45" stroke-width="1.2" stroke="#00f" stroke-miterlimit="10" fill="none"/><path d="M220.473 104.285l-4.133 10.453" stroke-width="1.2" stroke="#000" stroke-miterlimit="10" fill="none"/><path d="M215.492 82.29h8v13h-8zm0 0" fill="#fff"/><use xlink:href="#b" x="215.492" y="92.19" fill="#00f"/><path d="M209.156 114.922l-27.797 4.113" stroke-width="1.2" stroke="#000" stroke-miterlimit="10" fill="none"/></g></svg>
